tools/download-figma-icons/icons/solid/smart-heater.svg

<svg width="24" height="24" viewBox="0 0 24 24" fill="none" xmlns="http://www.w3.org/2000/svg">
<path fill-rule="evenodd" clip-rule="evenodd" d="M6.57786 4.2285C8.03511 2.469 9.96111 1.5 11.9996 1.5C14.0389 1.5 15.9649 2.469 17.4221 4.2285C17.5706 4.40775 17.7844 4.5 18.0004 4.5C18.1691 4.5 18.3386 4.44375 18.4781 4.32825C18.7976 4.0635 18.8419 3.59025 18.5779 3.27225C16.8296 1.16175 14.4941 0 11.9996 0C9.50586 0 7.17036 1.16175 5.42211 3.27225C5.15811 3.59025 5.20236 4.0635 5.52186 4.32825C5.84211 4.59225 6.31311 4.54875 6.57786 4.2285ZM12 3.00024C10.6395 3.00024 9.36826 3.62949 8.42176 4.77174C8.15851 5.09049 8.20276 5.56374 8.52151 5.82849C8.84176 6.09324 9.31426 6.04749 9.57827 5.72874C10.2345 4.93599 11.094 4.50024 12 4.50024C12.906 4.50024 13.7655 4.93599 14.4218 5.72874C14.571 5.90799 14.7848 6.00024 15.0008 6.00024C15.1695 6.00024 15.3383 5.94399 15.4785 5.82849C15.7973 5.56374 15.8415 5.09049 15.5783 4.77174C14.6318 3.62949 13.3605 3.00024 12 3.00024ZM15.75 20.2502H14.25V11.2502H15.75V20.2502ZM9.75 20.2502H8.25V11.2502H9.75V20.2502ZM20.25 20.2502H21C21.4125 20.2502 21.75 20.5877 21.75 21.0002C21.75 21.4127 21.4125 21.7502 21 21.7502H20.25C20.25 22.9877 19.2375 24.0002 18 24.0002C16.7625 24.0002 15.75 22.9877 15.75 21.7502H14.25C14.25 22.9877 13.2375 24.0002 12 24.0002C10.7625 24.0002 9.75 22.9877 9.75 21.7502H8.25V21.7877C8.25 23.0102 7.2375 24.0002 6 24.0002C4.7625 24.0002 3.75 23.0102 3.75 21.7877V21.7502H3C2.5875 21.7502 2.25 21.4127 2.25 21.0002C2.25 20.5877 2.5875 20.2502 3 20.2502H3.75V11.2502H3C2.5875 11.2502 2.25 10.9127 2.25 10.5002C2.25 10.0877 2.5875 9.75024 3 9.75024H3.75V9.71274C3.75 8.49024 4.7625 7.50024 6 7.50024C7.2375 7.50024 8.25 8.49024 8.25 9.71274V9.75024H9.75C9.75 8.51274 10.7625 7.50024 12 7.50024C13.2375 7.50024 14.25 8.51274 14.25 9.75024H15.75C15.75 8.51274 16.7625 7.50024 18 7.50024C19.2375 7.50024 20.25 8.51274 20.25 9.75024H21C21.4125 9.75024 21.75 10.0877 21.75 10.5002C21.75 10.9127 21.4125 11.2502 21 11.2502H20.25V20.2502Z" fill="black"/>
</svg>

<svg width="24" height="24" viewBox="0 0 24 24" fill="none" xmlns="http://www.w3.org/2000/svg"><path fill-rule="evenodd" clip-rule="evenodd" d="M6.578 4.229C8.035 2.469 9.96 1.5 12 1.5c2.039 0 3.965.969 5.422 2.729a.748.748 0 0 0 1.056.1.75.75 0 0 0 .1-1.057C16.83 1.162 14.494 0 12 0 9.506 0 7.17 1.162 5.422 3.272a.75.75 0 1 0 1.156.957ZM12 3c-1.36 0-2.632.63-3.578 1.772a.75.75 0 0 0 1.157.957C10.233 4.936 11.093 4.5 12 4.5c.906 0 1.765.436 2.422 1.229a.75.75 0 0 0 1.156-.957C14.632 3.629 13.361 3 12 3Zm3.75 17.25h-1.5v-9h1.5v9Zm-6 0h-1.5v-9h1.5v9Zm10.5 0H21c.413 0 .75.338.75.75 0 .413-.337.75-.75.75h-.75A2.257 2.257 0 0 1 18 24a2.257 2.257 0 0 1-2.25-2.25h-1.5A2.257 2.257 0 0 1 12 24a2.257 2.257 0 0 1-2.25-2.25h-1.5v.038C8.25 23.01 7.237 24 6 24s-2.25-.99-2.25-2.212v-.038H3a.752.752 0 0 1-.75-.75c0-.412.337-.75.75-.75h.75v-9H3a.752.752 0 0 1-.75-.75c0-.412.337-.75.75-.75h.75v-.037C3.75 8.49 4.763 7.5 6 7.5s2.25.99 2.25 2.213v.037h1.5A2.257 2.257 0 0 1 12 7.5a2.257 2.257 0 0 1 2.25 2.25h1.5A2.257 2.257 0 0 1 18 7.5a2.257 2.257 0 0 1 2.25 2.25H21c.413 0 .75.338.75.75 0 .413-.337.75-.75.75h-.75v9Z" fill="currentColor"/></svg>
